X: 383
T:Cueur langoreulx
N: Derived from Jos2902-Cueur_langoreulx.krn
C: Josquin des Prez
%%abc-version 2.0
%%abcx-abcm2ps-target-version 5.9.1 (29 Sep 2008)
%%abc-creator hum2abc beta
%%abcx-conversion-date 2019/02/12 16:15:55
%%abc-edited-by Jesse Rodin
%%abc-edited-by Will Watson 22/08/2011
%%abcx-initial-encoding-date 2011/08/22/
%%humdrum-veritas 2870937285
%%humdrum-veritas-data 966503328
%%linebreak <none>
%%barnumbers 0
L: 1/4
M: 2/1
Q: 1/2=120
V: 1 clef=treble
V: 2 clef=treble-8
V: 3 clef=treble-8
V: 4 clef=treble-8
V: 5 clef=bass
K: C
[V:1] A8 | 
[V:2] A4A4 | 
[V:3] z8 | 
[V:4] z8 | 
[V:5] A,6G,2 | 
[V:1] A4A4 | 
[V:2] A4c4- | 
[V:3] z8 | 
[V:4] z8 | 
[V:5] F,4F,4 | 
[V:1] G8 | 
[V:2] c2BAB2c2 | 
[V:3] z8 | 
[V:4] e8 | 
[V:5] E,6C,2 | 
[V:1] z4G4 | 
[V:2] G2c3de2 | 
[V:3] z8 | 
[V:4] e4e4 | 
[V:5] C,8 | 
[V:1] A4D2A2- | 
[V:2] f2d2f3g | 
[V:3] d8 | 
[V:4] d8 | 
[V:5] z8 | 
[V:1] AGFEF4 | 
[V:2] a8- | 
[V:3] d4d4 | 
[V:4] z4d4 | 
[V:5] z8 | 
[V:1] E8 | 
[V:2] a4z2A2 | 
[V:3] c8 | 
[V:4] e4A2e2- | 
[V:5] A,8 | 
[V:1] z8 | 
[V:2] c3de2^f2 | 
[V:3] z4c4 | 
[V:4] edcBc4 | 
[V:5] A,4A,4 | 
[V:1] z8 | 
[V:2] g2G2d2G2 | 
[V:3] d4G2d2- | 
[V:4] B8 | 
[V:5] G,8 | 
[V:1] z8 | 
[V:2] d4d4 | 
[V:3] dcBAB4 | 
[V:4] z2G2d2G2 | 
[V:5] z4G,4 | 
[V:1] A8 | 
[V:2] c2e2f2e2 | 
[V:3] A8 | 
[V:4] c3Ad2c2- | 
[V:5] A,4D,2A,2- | 
[V:1] A4A4 | 
[V:2] c4d4 | 
[V:3] z8 | 
[V:4] cBAGA4 | 
[V:5] A,G,F,E,F,4 | 
[V:1] G8 | 
[V:2] e3dB2c2 | 
[V:3] z8 | 
[V:4] B4e4 | 
[V:5] E,6C,2 | 
[V:1] z4G4 | 
[V:2] (3G2A2B2(3c2d2e2 | 
[V:3] z8 | 
[V:4] e4e4 | 
[V:5] C,8 | 
[V:1] A4D2A2- | 
[V:2] f2d2f3g | 
[V:3] d8 | 
[V:4] d8 | 
[V:5] z8 | 
[V:1] AGFEF4 | 
[V:2] a8- | 
[V:3] d4d4 | 
[V:4] z4d4 | 
[V:5] z8 | 
[V:1] E8 | 
[V:2] a4z2A2 | 
[V:3] c8 | 
[V:4] e4A2e2- | 
[V:5] A,8 | 
[V:1] z8 | 
[V:2] c3de2^f2 | 
[V:3] z4c4 | 
[V:4] edcBc4 | 
[V:5] A,4A,4 | 
[V:1] z8 | 
[V:2] g2G2d2G2 | 
[V:3] d4G2d2- | 
[V:4] B8 | 
[V:5] G,8 | 
[V:1] z8 | 
[V:2] d4d4 | 
[V:3] dcBAB4 | 
[V:4] z2G2d2G2 | 
[V:5] z4G,4 | 
[V:1] A3Bcde2- | 
[V:2] c4a4 | 
[V:3] A8 | 
[V:4] c3de2A2 | 
[V:5] A,4A,2C2- | 
[V:1] edd4^c2 | 
[V:2] g3fe4 | 
[V:3] z8 | 
[V:4] c2B2c2A2 | 
[V:5] CB,G,2A,4 | 
[V:1] d2ABcde2- | 
[V:2] d4a4 | 
[V:3] z8 | 
[V:4] z4z2A2 | 
[V:5] D,4z4 | 
[V:1] edd4^c2 | 
[V:2] g3fe4 | 
[V:3] z8 | 
[V:4] c2G2A4 | 
[V:5] z8 | 
[V:1] d8 | 
[V:2] d4z2f2- | 
[V:3] d3efga2- | 
[V:4] D4d4 | 
[V:5] z4z2D,2 | 
[V:1] z8 | 
[V:2] f2e2d4 | 
[V:3] agg4^f2 | 
[V:4] c3BA4 | 
[V:5] F,2C,2D,4 | 
[V:1] z8 | 
[V:2] B4z2f2- | 
[V:3] g2defga2- | 
[V:4] G4d4 | 
[V:5] G,,4z2D,2 | 
[V:1] z8 | 
[V:2] f2e2d4 | 
[V:3] agg4^f2 | 
[V:4] c3BA4 | 
[V:5] F,2C,2D,4 | 
[V:1] z4d4 | 
[V:2] B2G2B2B2 | 
[V:3] g8 | 
[V:4] G4z2G2 | 
[V:5] G,,8 | 
[V:1] d4d4 | 
[V:2] G2G2d3B | 
[V:3] z8 | 
[V:4] B2B2G2G2 | 
[V:5] z2G,2B,2B,2 | 
[V:1] d6c2 | 
[V:2] Bcdefga2- | 
[V:3] z8 | 
[V:4] d3cB2A2 | 
[V:5] G,2_B,3A,F,2 | 
[V:1] B2G2A4 | 
[V:2] agg4^f2 | 
[V:3] z8 | 
[V:4] B4z4 | 
[V:5] G,4D,4 | 
[V:1] G8 | 
[V:2] g2d2e2e2 | 
[V:3] z4g4 | 
[V:4] z2G2c2c2 | 
[V:5] z2G,2C,2C,2 | 
[V:1] z8 | 
[V:2] d2d2e4 | 
[V:3] g4g4 | 
[V:4] B2G2c4 | 
[V:5] G,2G,2C,4 | 
[V:1] z8 | 
[V:2] d4z4 | 
[V:3] g6f2 | 
[V:4] B2GABcd2- | 
[V:5] G,4z4 | 
[V:1] z8 | 
[V:2] z8 | 
[V:3] e2c2d4 | 
[V:4] dcc4B2 | 
[V:5] z8 | 
[V:1] z4G4 | 
[V:2] z4e4 | 
[V:3] c8 | 
[V:4] c8 | 
[V:5] z4C,4 | 
[V:1] A4A4 | 
[V:2] c4d4 | 
[V:3] z8 | 
[V:4] z4A4 | 
[V:5] F,4F,4 | 
[V:1] G4G4 | 
[V:2] e8 | 
[V:3] z8 | 
[V:4] c3de4 | 
[V:5] E,2C,2C4- | 
[V:1] c6B2 | 
[V:2] z8 | 
[V:3] z8 | 
[V:4] A4z4 | 
[V:5] C2B,2A,2G,2 | 
[V:1] A4G4 | 
[V:2] z4z2e2 | 
[V:3] z4c4 | 
[V:4] z4G4 | 
[V:5] F,2D,2E,4 | 
[V:1] F3EF4 | 
[V:2] f2g2a4- | 
[V:3] d4d4 | 
[V:4] A4F3G | 
[V:5] D,8 | 
[V:1] E8 | 
[V:2] a2gfe2c2 | 
[V:3] c4c4 | 
[V:4] A8 | 
[V:5] z4A,,4 | 
[V:1] z8 | 
[V:2] d2DEFGA2- | 
[V:3] f6e2 | 
[V:4] z2A2D2E2 | 
[V:5] D,6C,2 | 
[V:1] z8 | 
[V:2] AGG3^F^FE | 
[V:3] d4c4 | 
[V:4] F2G2C4 | 
[V:5] B,,2A,,G,,A,,4 | 
[V:1] z4G4 | 
[V:2] G4z2d2 | 
[V:3] B3AB4 | 
[V:4] D4G4 | 
[V:5] G,,4G,,4 | 
[V:1] A4F4 | 
[V:2] d2f4ed | 
[V:3] A8 | 
[V:4] F2D2d4 | 
[V:5] D,4D,4 | 
[V:1] E2c2c2c2 | 
[V:2] e2e2e2e2 | 
[V:3] z8 | 
[V:4] c2c2c2c2 | 
[V:5] A,,2A,2A,2A,2 | 
[V:1] B2A3^GG^F | 
[V:2] f4e4 | 
[V:3] z8 | 
[V:4] d4B4 | 
[V:5] D,4E,4 | 
[V:1] A2c2c2c2 | 
[V:2] c4z2e2 | 
[V:3] z4c4 | 
[V:4] A4z2A2 | 
[V:5] A,,4A,4 | 
[V:1] B2A3^GG^F | 
[V:2] f4e3B | 
[V:3] d4B4 | 
[V:4] F4G4 | 
[V:5] D,4E,4 | 
[V:1] A8- | 
[V:2] c2d2z2A2 | 
[V:3] A2f2f2f2 | 
[V:4] E2D2A4 | 
[V:5] A,,2D,2F,2E,2 | 
[V:1] A8- | 
[V:2] c2d2e4 | 
[V:3] e2d3^c^cB | 
[V:4] z8 | 
[V:5] A,2D,2A,4 | 
[V:1] A8- | 
[V:2] f3dd2A2 | 
[V:3] d2f2f2f2 | 
[V:4] z2D2F2D2 | 
[V:5] D,8 | 
[V:1] A8- | 
[V:2] c2d2e4 | 
[V:3] e2d3^c^cB | 
[V:4] A2D2A4 | 
[V:5] z8 | 
[V:1] A8- | 
[V:2] f3dd4 | 
[V:3] d8- | 
[V:4] D8 | 
[V:5] z2D,2D,2D,2 | 
[V:1] A8- | 
[V:2] z4z2d2 | 
[V:3] d8- | 
[V:4] z2D2D2D2 | 
[V:5] F,4F,3D, | 
[V:1] A8- | 
[V:2] d2d2f4 | 
[V:3] d8- | 
[V:4] F4F3D | 
[V:5] D,8- | 
[V:1] A8 |]  
[V:2] f3dd4 |]  
[V:3] d8 |]  
[V:4] D8 |]  
[V:5] D,8 |]  



